src/icons/2x5.svg

<svg xmlns="http://www.w3.org/2000/svg" width="512" height="512" viewBox="0 0 512 512">
    <path d="M373.7 263.1H416v146.4h-42.3V263.1zm-69.4 0h42.3v146.4h-42.3V263.1zm-69.5 0h42.3v146.4h-42.3V263.1zm-69.4 0h42.3v146.4h-42.3V263.1zm-69.4 0h42.3v146.4H96V263.1zM373.7 89.5H416v146.4h-42.3V89.5zm-69.4 0h42.3v146.4h-42.3V89.5zm-69.5 0h42.3v146.4h-42.3V89.5zm-69.4 0h42.3v146.4h-42.3V89.5zm-69.4 0h42.3v146.4H96V89.5z"/>
</svg>

<?xml version="1.0" encoding="UTF-8"?>
<svg width="512px" height="512px" viewBox="0 0 512 512" version="1.1" xmlns="http://www.w3.org/2000/svg" xmlns:xlink="http://www.w3.org/1999/xlink">
    <!-- Generator: Sketch 62 (91390) - https://sketch.com -->
    <title>2x5</title>
    <desc>Created with Sketch.</desc>
    <g id="2x5" stroke="none" stroke-width="1" fill="none" fill-rule="evenodd">
        <path d="M373.7,263.1 L416,263.1 L416,409.5 L373.7,409.5 L373.7,263.1 Z M304.3,263.1 L346.6,263.1 L346.6,409.5 L304.3,409.5 L304.3,263.1 Z M234.8,263.1 L277.1,263.1 L277.1,409.5 L234.8,409.5 L234.8,263.1 Z M165.4,263.1 L207.7,263.1 L207.7,409.5 L165.4,409.5 L165.4,263.1 L165.4,263.1 Z M96,263.1 L138.3,263.1 L138.3,409.5 L96,409.5 L96,263.1 L96,263.1 Z M373.7,89.5 L416,89.5 L416,235.9 L373.7,235.9 L373.7,89.5 Z M304.3,89.5 L346.6,89.5 L346.6,235.9 L304.3,235.9 L304.3,89.5 Z M234.8,89.5 L277.1,89.5 L277.1,235.9 L234.8,235.9 L234.8,89.5 Z M165.4,89.5 L207.7,89.5 L207.7,235.9 L165.4,235.9 L165.4,89.5 L165.4,89.5 Z M96,89.5 L138.3,89.5 L138.3,235.9 L96,235.9 L96,89.5 Z" id="Shape" fill="#000000" fill-rule="nonzero"></path>
    </g>
</svg>
